dist/img/icons/checked-circle.svg

<svg width="32" height="32" viewBox="0 0 32 32" fill="none" xmlns="http://www.w3.org/2000/svg">
<path d="M16 32C24.8225 32 32 24.8226 32 16.0001C32 7.17771 24.8225 0 16 0C7.1775 0 0 7.17771 0 16.0001C0 24.8226 7.1775 32 16 32ZM8.2603 14.2904C9.20483 13.3464 10.7353 13.3464 11.6798 14.2904L13.99 16.6009L20.3202 10.2705C21.2647 9.3265 22.7952 9.3265 23.7397 10.2705C24.684 11.2147 24.684 12.7457 23.7397 13.6899L15.6998 21.7298C15.2276 22.2016 14.609 22.438 13.99 22.438C13.3711 22.438 12.7524 22.2019 12.2803 21.7298L8.2603 17.7099C7.31605 16.7656 7.31605 15.2344 8.2603 14.2904Z" fill="white"/>
</svg>

<svg width="32" height="32" viewBox="0 0 32 32" fill="none" xmlns="http://www.w3.org/2000/svg"><path d="M16 32c8.823 0 16-7.177 16-16 0-8.822-7.177-16-16-16C7.178 0 0 7.178 0 16c0 8.823 7.178 16 16 16zM8.26 14.29a2.418 2.418 0 0 1 3.42 0l2.31 2.31 6.33-6.33a2.418 2.418 0 0 1 3.42 3.42l-8.04 8.04a2.412 2.412 0 0 1-1.71.708 2.41 2.41 0 0 1-1.71-.708l-4.02-4.02a2.418 2.418 0 0 1 0-3.42z" fill="#fff"/></svg>
